X: 1
T: Loch Earn
M: 4/4
L: 1/8
R: reel
K: Gmaj
g2dB GABG|E2AG FDDf|g2dB GABG|EAFD ~G3z:|
efge fgaf|gfeg fdd2|efge fgaf|gfed ~g3f|
g2ge dBGB|cABG AGEF|G2BG EGBe|dBAB G3z||
